X: 11001
Q: "Spiritoso"
M: 3/4
L: 1/8
K: G
(d/c/) | B d g {f/}e | d2 G G | B e {e/}d {c/}B |
(B2 {cB}A) (d/c/) | B d g {f/}e | d2 G G | c E A F |
c3 e | d> c B d | c B A c | d g B d |
(BA) Hz (d/c/) | B d g {f/}e | d2 G G |
ef/g/ ag | fe/d/ gB | cAdD | G3 ]



